packages/foundations/assets/icons/functional/images/editing/pen_32.svg

<svg width="32" height="32" viewBox="0 0 32 32" fill="none" xmlns="http://www.w3.org/2000/svg">
<g clip-path="url(#clip0_83_262)">
<path fill-rule="evenodd" clip-rule="evenodd" d="M24.9646 0C25.7851 0 26.6069 0.32151 27.3566 1.07323L30.9646 4.68421C31.6069 5.3627 32 6.22082 32 7.15103C32 7.97368 31.7143 8.79634 30.9646 9.54691L11.4994 28.9622C11.072 29.3913 10.6423 29.7128 9.85714 29.8913L1.42857 31.9657C1.32114 32 1.17829 32 1.07086 32C0.787324 31.9991 0.515643 31.886 0.315047 31.6854C0.11445 31.4848 0.0012051 31.2129 0 30.9291C0 30.8227 -1.14952e-07 30.7151 0.0354285 30.6076L2.14286 22.0984C2.28571 21.4188 2.57143 20.9886 3.072 20.4886L22.5006 1.07437C23.1429 0.429062 24.0354 0 24.9646 0ZM4 23.992L2.67886 29.3192L7.96457 27.9966L4 23.992ZM21.1074 5.68535L5.03543 21.7391L10.2149 26.9954L26.2857 10.9039L21.1074 5.68535ZM24.928 2.3238C24.6423 2.3238 24.3566 2.43135 24.1074 2.68192L22.7143 4.07551L27.9291 9.33181L29.3577 7.9016C29.536 7.72311 29.7143 7.43707 29.7143 7.07895C29.7143 6.82952 29.6069 6.57895 29.3566 6.29291L25.7497 2.68192C25.6434 2.57089 25.5161 2.48207 25.3752 2.4206C25.2344 2.35913 25.0816 2.32623 24.928 2.3238Z" fill="#1A1C1F"/>
</g>
<defs>
<clipPath id="clip0_83_262">
<rect width="32" height="32" fill="white"/>
</clipPath>
</defs>
</svg>

<svg xmlns="http://www.w3.org/2000/svg" width="32" height="32" fill="none"><g clip-path="url(#a)"><path fill="#1A1C1F" fill-rule="evenodd" d="M24.965 0c.82 0 1.642.322 2.392 1.073l3.608 3.611C31.607 5.363 32 6.221 32 7.151c0 .823-.286 1.645-1.035 2.396L11.499 28.962c-.427.43-.857.75-1.642.93L1.43 31.965C1.32 32 1.179 32 1.07 32A1.074 1.074 0 0 1 0 30.93c0-.107 0-.215.035-.322l2.108-8.51c.143-.68.428-1.11.929-1.61L22.501 1.075C23.143.43 24.035 0 24.965 0M4 23.992l-1.321 5.327 5.286-1.322zM21.107 5.685 5.035 21.74l5.18 5.256 16.07-16.091zm3.821-3.361c-.286 0-.571.107-.82.358l-1.394 1.394 5.215 5.256 1.429-1.43c.178-.179.356-.465.356-.823 0-.25-.107-.5-.357-.786L25.75 2.682a1.16 1.16 0 0 0-.822-.358" clip-rule="evenodd"/></g><defs><clipPath id="a"><path fill="#fff" d="M0 0h32v32H0z"/></clipPath></defs></svg>
